!!!COM: Bach, Johann Sebastian
!!!CDT: 1685/3//-1750/7/28/
!!!OTL@@DE: O Mensch, bewein' dein' Suende gross
!!!AGN: 4-Part Chorale
!!!SCT: BH 306
!!!SCT: BWV 402
!!!YEC: Copyright 1994, David Huron
!!!YEC: Changes/Additions 2001 by Craig Stuart Sapp
!!!YEN: United States of America
!!!SMA: 371 Bach Chorales, edited by Ludwig Erk, C.F. Peters
!!!PDT: 1850, 1865
!!!ONB: Harmony and Root analysis done manually
**kern	**kern	**kern	**kern	**root	**harm
!bass	!tenor	!alto	!soprno	!	!
*Iorgan	*Iorgan	*Iorgan	*Iorgan	*Iorgan	*
*M4/4	*M4/4	*M4/4	*M4/4	*M4/4	*M4/4
*met(C)	*met(C)	*met(C)	*met(C)	*met(C)	*met(C)
*MM60	*MM60	*MM60	*MM60	*MM60	*MM60
*k[b-e-a-]	*k[b-e-a-]	*k[b-e-a-]	*k[b-e-a-]	*k[b-e-a-]	*k[b-e-a-]
*E-:	*E-:	*E-:	*E-:	*E-:	*E-:
*>[A,A,B]	*>[A,A,B]	*>[A,A,B]	*>[A,A,B]	*>[A,A,B]	*>[A,A,B]
*>A	*>A	*>A	*>A	*>A	*>A
4E-	4G	4B-	4e-	4EE-	I
=1	=1	=1	=1	=1	=1
8A-	4A-	4.c	4e-	4AA-	IV
8G	.	.	.	.	.
4F	4A-	.	4f	4FF	ii
.	.	16Bn	.	.	.
.	.	16c	.	.	.
4BBn	4G	4.d	8g	4GG	Vb/vi
.	.	.	8f	.	.
[4C	4G	.	4e-	4CC	vi
.	.	16c	.	.	.
.	.	16d	.	.	.
=2	=2	=2	=2	=2	=2
4C]	8c	4.e-	4g	4CC	vi
.	8B-	.	.	.	.
4FF#	4An	.	4an	4FF#	viioD7/iii
.	.	8d	.	.	.
4GG;	4G;	4d;	4b-;	4GG;	iii;
4G	4d	[4g	4b-	4GG	iii
=3	=3	=3	=3	=3	=3
8C	8e-	8g]	4a-y	8AA-	IVb
8D	8B-	4f	.	8BB-	V7b
4E-	4B-	.	4g	4EE-	I
.	.	4e-	.	.	.
8AAn	8c	.	4f	8FF	V7b/V
8BBn	8G	8d	.	8GG	V7b/vi
[4C	4G	8c	8e-	4CC	vi
.	.	8d	8f	.	.
=4	=4	=4	=4	=4	=4
4C]	8c	4e-	4g	4CC	vi
.	8B-	.	.	.	.
4FF	4c	4e-	4an	4FF	V7/V
4BB-;	4B-;	4d;	4b-;	4BB-;	V;
8F	[4A-y	[4f	4cc	4FF	ii
8E-	.	.	.	.	.
=5	=5	=5	=5	=5	=5
8D	8A-]	8f]	4b-	8BB-	V7b
8BB-	4G	16e-	.	8EE-	Ic
.	.	16d	.	.	.
8C	.	8e-	4a-	8AA-	IVb
8D	8F	8B-	.	8BB-	V7b
8E-	4.E-	8B-	4g	4EE-	I
8D	.	16e-	.	.	.
.	.	16d	.	.	.
8C	.	[4e-	4a-	4AA-	IVb
8BB-	8B-	.	.	.	.
!!linebreak: 3
=6	=6	=6	=6	=6	=6
8AA-	8c	8e-]	2f	8FF	ii7b
8FF	8A-	16d	.	8DD	viib
.	.	16c	.	.	.
4BB-	8F	4d	.	4BB-	V
.	8B-	.	.	.	.
4EE-;	4G;	4B-;	4e-;	4EE-;	I;
=:|!	=:|!	=:|!	=:|!	=:|!	=:|!
*>B	*>B	*>B	*>B	*>B	*>B
8EE-	8G	8b-	4ee-	8EE-	I
8FF	8A-	8a-	.	8FF	ii7
=7	=7	=7	=7	=7	=7
4GG	4B-	4g	4ee-	4EE-	Ib
4AAn	[4c	4f	4ee-	4FF	V7b/V
8BB-	8c]	4f	4dd	4BB-	V
8C	16B-	.	.	.	.
.	16A-y	.	.	.	.
4D-	4G	4e-	4b-	4EE-	V7d/IV
=8	=8	=8	=8	=8	=8
8C	4A-	8e-	4cc	4AA-	IVb
8BB-	.	8d-	.	.	.
4AA-	4A-	4e-	4cc	4AA-	IV
4E-;	4B-;	4e-;	4g;	4EE-;	I;
8C	4c	4g	4ee-	4CC	vi
8BB-	.	.	.	.	.
=9	=9	=9	=9	=9	=9
8AAn	8c	4f	4ee-	4FF	V7b/V
8GG	8B-	.	.	.	.
4FF	4An	4f	4ee-	4FF	V7/V
8BB-	8B-	4f	4dd	4BB-	V
8C	8A	.	.	.	.
4D	[4B-	4f	4b-	4BB-	Vb
=10	=10	=10	=10	=10	=10
4C	8B-]	4g	4cc	4CC	V7/II
.	16An	.	.	.	.
.	16G	.	.	.	.
4F	4A	8f	4cc	4FF	II
.	.	8e-	.	.	.
4BB-;	4B-;	4d;	4b-;	4BB-;	V;
[4E-	4B-	8e-	8g	4EE-	I
.	.	8f	8a-	.	.
=11	=11	=11	=11	=11	=11
8E-]	4e-	4g	4b-	4EE-	I
8D-	.	.	.	.	.
8C	4e-	4a-	4cc	4AA-	IVb
8Dn	.	.	.	.	.
4E-	8e-	4g	4b-	4EE-	V/IV
.	4d-	.	.	.	.
4En	.	[4g	4g	4CC	Vb/ii
.	8c	.	.	.	.
!!linebreak: 3
=12	=12	=12	=12	=12	=12
4F	4c	8g]	2a-	4FF	ii
.	.	16f	.	.	.
.	.	16e-	.	.	.
4BBn	8dn	8f	.	4BB	viiD7/vi
.	8f	8d	.	.	.
4C;	4c;	4e-;	4g;	4CC;	vi;
[4D-	4A-	4f	4f	4DD-	IV/IV
=13	=13	=13	=13	=13	=13
4D-]	4B-	4e-	4g	4EE-	V7d/IV
4C	4c	4e-	4a-	4AA-	IV
8BB-	4dn	4f	4b-	4BB-	V
8AA-	.	.	.	.	.
4GG	8Dn	4g	4b-	4GG	iii
.	8En	.	.	.	.
=14	=14	=14	=14	=14	=14
4FF	4F	8c	4a-	4FF	ii
.	.	8d	.	.	.
8GG	4B-	[4e-	4g	4EE-	Ib
8AA-	.	.	.	.	.
4BB-;	4B-;	8e-]	4f;	4BB-;	V;
.	.	8d;	.	.	.
4B-	4d	4f	4b-	4BB-	V
=15	=15	=15	=15	=15	=15
4An	4c	4f	4cc	4FF	Vb/V
4A-	[4B-	4f	4dd	4BB-	V7c
4.G	8B-]	8g	4ee-	4EE-	Ib
.	8c	8an	.	.	.
.	4d	[4b-	4dd	4GG	iii
8F	.	.	.	.	.
=16	=16	=16	=16	=16	=16
4En	4G	4b-]	4cc	4CC	V7b/ii
4F#	4d	4an	4cc	4DD	V7b/iii
4G;	4d;	4g;	4b-;	4GG;	iii;
[4A-y	4c	4e-	4e-	4AA-	IV
=17	=17	=17	=17	=17	=17
8A-]	4B-	4d	4f	4BB-	V7d
8G	.	.	.	.	.
8F	4.B-	4e-	4g	4EE-	I
8E-	.	.	.	.	.
8D	.	8f	4a-	8BB-	V7b
8BB-	8F	8d	.	8BB-	V7
8E-	8G	8B-	4g	8EE-	I
8GG	8B-	[8e-	.	8EE-	Ib
=18	=18	=18	=18	=18	=18
4AA-	8c	8e-]	2f	8FF	ii7b
.	8A-	16d	.	8DD	viib
.	.	16c	.	.	.
4BB-	8F	4d	.	4BB-	V
.	16B-	.	.	.	.
.	16A-	.	.	.	.
4EE-;	4G;	4B-;	4e-;	4EE-;	I;
==	==	==	==	==	==
*-	*-	*-	*-	*-	*-
!!chor2scor: -l 3 -s 0.6 -o %b.pmx
